X:1
T:Charming Judy Callaghan
T:(Nora Criona)
N:from the playing of Sally Sloane
Z:Ian Hayden, 2017
M:6/8
L:1/8
K:D
|:D2D D2E| F2G A2F|D2D D2F| E2F GFE|
|DDD D2D|F2G A2F|E2B B2A|E2F GFE|]
[|AAA A2G|F2G A2F|AAA A2F|E2F GFE|
|AAA A2G|F2G A2F|E2B B2A|E2F GFE:|
